!!!!SEGMENT: pl-kk--kk-i-476--004_studzinski-wincenty--msza-sanctus.krn
!!!cenid: 18xx:1375
!!!COM: Studziński, Wincenty
!!!COM-rismid: pe41023091
!!!CDT: 1815/03/30-1854/07/15
!!!CNT: Polish
!!!OPR: Msza
!!!OTL: Sanctus
!!!OMV: 004
!!!PDT:
!!!AGN: Sacred; Mass
!!!SMS-siglum: PL-Kk
!!!SMS-shelfmark: Kk.I.476
!!!SMS-shelfwork: 001-004 M
!!!SMS-variant:
!!!SMS-altvar:
!!!NIFC-rismid: 1001140245
!!!URL-scan: http://repozytorium.nifc.pl/skany/pl-kk-nut--i-476
!!!ONB-nifc: UWAGA: części Mszy: 1. Kirie, 2. Gloria, 3. Credo, 4. Sanctus, 5. Benedictus, 6. Agnus
**kern	**text	**text	**dynam	**kern	**text	**dynam	**kern	**text	**dynam	**kern	**text	**dynam	**kern	**text	**text	**dynam	**kern	**text	**dynam
*part6	*part6	*part6	*part6	*part5	*part5	*part5	*part4	*part4	*part4	*part3	*part3	*part3	*part2	*part2	*part2	*part2	*part1	*part1	*part1
*group	*group	*group	*group	*group	*group	*group	*group1	*group1	*group1	*group1	*group1	*group1	*group1	*group1	*group1	*group1	*group1	*group1	*group1
*staff6	*staff6	*staff6	*	*staff5	*staff5	*	*staff4	*staff4	*	*staff3	*staff3	*	*staff2	*staff2	*staff2	*	*staff1	*staff1	*
*Iorgan	*	*	*	*Iorgan	*	*	*Iempty	*	*	*Itenor	*	*	*Ialto	*	*	*	*Isoprn	*	*
*I"[Organo]	*	*	*	*I"[Organo]	*	*	*I"Basſo	*	*	*I"Tenor	*	*	*I"Alto	*	*	*	*I"Soprano	*	*
*org	*	*	*	*I'org	*	*	*I'B	*	*	*I'T	*	*	*I'A	*	*	*	*I'S	*	*
*clefF4	*	*	*	*clefG2	*	*	*clefF4	*	*	*clefC4	*	*	*clefC3	*	*	*	*clefC1	*	*
*k[b-e-]	*	*	*	*k[b-e-]	*	*	*k[b-e-]	*	*	*k[b-e-]	*	*	*k[b-e-]	*	*	*	*k[b-e-]	*	*
*B-:	*	*	*	*B-:	*	*	*B-:	*	*	*B-:	*	*	*B-:	*	*	*	*B-:	*	*
*M4/4	*	*	*	*M4/4	*	*	*M4/4	*	*	*M4/4	*	*	*M4/4	*	*	*	*M4/4	*	*
*met(c)	*	*	*	*met(c)	*	*	*met(c)	*	*	*met(c)	*	*	*met(c)	*	*	*	*met(c)	*	*
=1	=1	=1	=1	=1	=1	=1	=1	=1	=1	=1	=1	=1	=1	=1	=1	=1	=1	=1	=1
*^	*	*	*	*^	*	*	*	*	*	*	*	*	*	*	*	*	*	*	*
*2\right	*2\right	*	*	*	*2\right	*2\right	*	*	*2\right	*	*	*2\right	*	*	*2\right	*	*	*	*2\right	*	*
!	!	!	!	!	!	!	!	!	!	!	!	!	!	!	!	!	!	!	!LO:TX:t=P:problem:all/right	!	!
!	!	!	!	!	!LO:TX:t=P:problem:all2\right	!	!	!	!LO:TX:t=P:problem:all/right	!	!	!LO:TX:t=P:problem:all\right	!	!	!LO:TX:t=P:problem:all\right:sanctus, pleni	!	!	!	!LO:TX:t=P:problem:znaki przykluczowe: b-, ee-	!	!
!	!	!	!	!	!LO:TX:i:a:t=Andante	!	!	!	!LO:TX:i:a:t=andante	!	!LO:DY:a:rj	!LO:TX:i:a:t=andante	!	!	!LO:TX:i:a:t=Andante	!	!	!	!LO:TX:i:a:t=andante	!	!
!	!	!	!	!	!LO:TX:i:a:t=Sanctus	!	!	!	!LO:TX:i:a:t=Sanctus	!	!	!LO:TX:t=P:problem:znaki przykluczowe: B-, EE-	!	!	!LO:TX:t=P:problem:napis "Sanctus" przed kluczem	!	!	!	!LO:TX:t=P:problem:napis "Sanctus" przed kluczem	!	!
!	!	!	!	!	!LO:TX:t=P:problem:napis "Sanctus" przed akoladą	!	!	!	!LO:TX:t=P:problem:napis "Sanctus" przed kluczem	!	!	!LO:TX:i:a:t=Sanctus	!	!	!LO:TX:i:a:t=Sanctus	!	!	!LO:DY:b:rj	!LO:TX:i:a:t=Sanctus	!	!
!	!	!	!	!	!	!	!	!	!	!	!	!LO:TX:t=P:problem:napis "Sanctus" przed kluczem	!	!LO:DY:b:t=p.:rj	!LO:SIC:l:v:s=San-	!	!	!	!	!	!
2d\	2B-\	San-	.	.	4.b-/	2f\	.	.	2B-\	San-	p	2d\	San-	p	2f\	Sa-	.	p	4.b-\	San-	.
.	.	.	.	.	8f/	.	.	.	.	.	.	.	.	.	.	.	.	.	8f/	.	.
!LO:TX:a:t=P:problem:cauda zamazana	!	!	!	!	!	!LO:TX:b:t=P:problem:\right	!	!	!	!	!	!	!	!	!	!	!	!	!	!	!
!LO:N:vis=4:xstem	!	!	!	!	!	!	!	!	!	!	!	!	!	!	!	!	!	!	!	!	!
4d/	4B-\	-ctus	.	.	4f/	4f\	.	.	4B-\	-ctus	.	4d\	-ctus	.	4f\	-ctus	.	.	4f/	-ctus	.
4r	4ryy	.	.	.	4r	4ryy	.	.	4r	.	.	4r	.	.	4r	.	.	.	4r	.	.
=2	=2	=2	=2	=2	=2	=2	=2	=2	=2	=2	=2	=2	=2	=2	=2	=2	=2	=2	=2	=2	=2
!	!	!	!	!	!	!	!	!	!	!	!	!	!	!	!	!	!	!	!LO:TX:t=P:problem:\left:cały takt	!	!
4.f/	2B-\	San-	.	.	4.dd/	4.b-\	.	.	2B-\	San-	.	2d\	San-	.	(>4.b-\	San-	.	.	(>4.dd\	San-	.
!	!	!	!	!	!	!	!	!	!	!	!	!	!	!	!LO:TX:t=P:problem:\left	!	!	!	!	!	!
8ryy	.	.	.	.	8b-/	8f\	.	.	.	.	.	.	.	.	8f\)	.	.	.	8b-\)	.	.
!	!	!	!	!	!	!	!	!	!	!	!	!	!	!	!LO:TX:t=P:problem:\left	!	!	!	!	!	!
!	!	!	!	!	!	!	!	!	!	!	!	!	!	!	!LO:SIC:l:v:s=-ctus	!	!	!	!	!	!
4d/	4B-\	-ctus	.	.	4b-/	4f\	.	.	4B-\	-ctus	.	4d\	-ctus	.	4f\	-tus	.	.	4b-\	-ctus	.
4r	4ryy	.	.	.	4r	4ryy	.	.	4r	.	.	4r	.	.	4r	.	.	.	4r	.	.
*	*	*	*	*	*v	*v	*	*	*	*	*	*	*	*	*	*	*	*	*	*	*
=3	=3	=3	=3	=3	=3	=3	=3	=3	=3	=3	=3	=3	=3	=3	=3	=3	=3	=3	=3	=3
!	!	!	!	!	!	!	!	!	!	!LO:DY:a	!	!	!LO:DY:a	!	!	!	!	!LO:TX:a:t=P:problem:oznaczenia dynamiczne na pięciolinii	!	!LO:HP:b
4rA	2B-\	San-	.	.	1ff 1dd	.	<	(>2B-\	San-	<	4r	.	<	1dd	San-	.	<	1ff	San-	<
4F/	.	.	.	.	.	.	.	.	.	.	4F/	Sanc-	.	.	.	.	.	.	.	.
.	.	.	.	.	.	.	[>	.	.	.	.	.	.	.	.	.	.	.	.	.
!	!	!	!	!	!	!	!	!	!	!	!	!	!LO:DY:a	!	!	!	!	!	!	!LO:HP:b
4B-/	4F\	.	.	.	.	.	.	4F\)	.	.	4B-\	.	[ >	.	.	.	[ >	.	.	[ >
.	.	.	.	.	.	.	.	.	.	[	.	.	.	.	.	.	.	.	.	.
!	!	!	!	!	!	!	!	!	!	!LO:DY:a	!	!	!	!	!	!	!	!	!	!
4d/	4D\	.	.	.	.	.	]	4D\	.	>	4d\	.	]]	.	.	.	]]	.	.	]]
=4	=4	=4	=4	=4	=4	=4	=4	=4	=4	=4	=4	=4	=4	=4	=4	=4	=4	=4	=4	=4
!LO:TX:t=P:problem:\right	!	!	!	!	!	!	!	!	!	!	!	!	!	!LO:N:vis=4:xstem	!	!	!	!LO:TX:t=P:problem:\left	!	!
4f\	4BB-\	-ctus	.	.	4b-/ 4dd	.	.	4BB-/	-ctus	]	4f\	-tus	.	4b-\	-ctus	.	.	4dd\	-ctus	.
4r	4ryy	.	.	.	4r	.	.	4r	.	.	4r	.	.	4r	.	.	.	4r	.	.
2r	2ryy	.	.	.	2r	.	.	2r	.	.	2r	.	.	2r	.	.	.	2r	.	.
*v	*v	*	*	*	*	*	*	*	*	*	*	*	*	*	*	*	*	*	*	*
!	!	!	!	!	!	!	!LO:LB:g=original	!	!	!	!	!	!LO:LB:g=original	!	!	!	!	!	!
=5	=5	=5	=5	=5	=5	=5	=5	=5	=5	=5	=5	=5	=5	=5	=5	=5	=5	=5	=5
*	*	*	*	*^	*	*	*	*	*	*	*	*	*	*	*	*	*	*	*
!	!	!	!	!	!	!	!	!	!	!LO:DY:b:rj	!	!	!LO:DY:b:rj	!	!	!	!LO:DY:b:rj	!	!	!
2E-\ 2c	San-	.	.	4.cc/	2g\	.	.	2E-\	San-	p	2c\	San-	p	2g\	San-	.	p	(>4.cc\	San-	.
.	.	.	.	8g/	.	.	.	.	.	.	.	.	.	.	.	.	.	8g\)	.	.
!	!	!	!	!	!LO:TX:b:t=P:problem:\right	!	!	!	!	!	!	!	!	!	!	!	!	!	!	!
4E-\ 4c	-ctus	.	.	4g/	4g\	.	.	4E-\	-ctus	.	4c\	-ctus	.	4g\	-ctus	.	.	4g\	-ctus	.
4r	.	.	.	4r	4ryy	.	.	4r	.	.	4r	.	.	4r	.	.	.	4r	.	.
!	!	!	!	!	!	!	!	!	!	!	!LO:LB:g=original	!	!	!	!	!	!	!LO:LB:g=original	!	!
=6	=6	=6	=6	=6	=6	=6	=6	=6	=6	=6	=6	=6	=6	=6	=6	=6	=6	=6	=6	=6
*^	*	*	*	*	*	*	*	*	*	*	*	*	*	*	*	*	*	*	*	*
!	!LO:TX:a:t=P:problem:nuty wydrapane. Niewyraźny zapis	!	!	!	!	!	!	!	!	!	!	!	!	!	!	!	!	!	!	!	!
4.e-/	2C\ 2c	San-	.	.	4.ee-/	4.cc\	.	.	2C/	San-	.	2e-\	San-	.	(>4.cc\	San-	.	.	(>4.ee-\	San-	.
8e-/	.	.	.	.	8cc/	8g\	.	.	.	.	.	.	.	.	8g\)	.	.	.	8cc\)	.	.
!LO:TX:t=P:problem:\right	!	!	!	!	!	!	!	!	!	!	!	!	!	!	!	!	!	!	!	!	!
4e-\	4C\	-ctus	.	.	4cc/	4g\	.	.	4C/	-ctus	.	4e-\	-ctus	.	4g\	-ctus	.	.	4cc\	-ctus	.
4r	4ryy	.	.	.	4r	4ryy	.	.	4r	.	.	4r	.	.	4r	.	.	.	4r	.	.
*	*	*	*	*	*v	*v	*	*	*	*	*	*	*	*	*	*	*	*	*	*	*
=7	=7	=7	=7	=7	=7	=7	=7	=7	=7	=7	=7	=7	=7	=7	=7	=7	=7	=7	=7	=7
4r	2c\	San-	.	.	1gg 1ee-	.	.	(>2c\	San-	.	4r	.	.	1ee-	San-	.	.	1gg	San-	.
4G/	.	.	.	.	.	.	.	.	.	.	(>4G\	Sanc-	.	.	.	.	.	.	.	.
4c/	4G\	.	.	.	.	.	.	4G'>\	.	.	4c\	.	.	.	.	.	.	.	.	.
4e-/	4E-\	.	.	.	.	.	.	4E-\)	.	.	4e-\)	.	.	.	.	.	.	.	.	.
=8	=8	=8	=8	=8	=8	=8	=8	=8	=8	=8	=8	=8	=8	=8	=8	=8	=8	=8	=8	=8
!	!	!	!	!	!	!	!	!	!	!	!	!	!	!LO:TX:t=P:problem:\left	!	!	!	!	!	!
4g/	4C\	-ctus	.	.	4cc\ 4ee-	.	.	4C/	-ctus	.	4g\	-tus	.	4cc\	-ctus	.	.	4cc\	-ctus	.
4r	4ryy	.	.	.	4r	.	.	4r	.	.	4r	.	.	4r	.	.	.	4r	.	.
2r	2ryy	.	.	.	2r	.	.	2r	.	.	2r	.	.	2r	.	.	.	2r	.	.
*v	*v	*	*	*	*	*	*	*	*	*	*	*	*	*	*	*	*	*	*	*
!LO:LB:g=original	!	!	!	!LO:LB:g=original	!	!	!	!	!	!	!	!	!	!	!	!	!	!	!
=9	=9	=9	=9	=9	=9	=9	=9	=9	=9	=9	=9	=9	=9	=9	=9	=9	=9	=9	=9
2F\ 2c	Do-	.	.	2a\ 2ee-	.	.	2F\	Do-	.	2c\	Do-	.	2a\	Do-	.	.	2ee-\	Do-	.
4F\ 4d	-mi-	.	.	4a\ 4dd	.	.	4F\	-mi-	.	4d\	-mi-	.	4a\	-mi-	.	.	4dd\	-mi-	.
4F\ 4e-	-nus	.	.	4a\ 4cc	.	.	4F\	-nus	.	4e-\	-nus	.	4a\	-nus	.	.	4cc\	-nus	.
=10	=10	=10	=10	=10	=10	=10	=10	=10	=10	=10	=10	=10	=10	=10	=10	=10	=10	=10	=10
2F\ 2d	De-	.	.	2f\ 2b-	.	.	2F\	De-	.	2d\	De-	.	2f\	De-	.	.	2b-\	De-	.
2F\ 2A	-us	.	.	2f\ 2cc	.	.	2F\	-us	.	2A\	-us	.	2f\	-us	.	.	2cc\	-us	.
!	!	!	!	!	!	!	!LO:LB:g=original	!	!	!	!	!	!LO:LB:g=original	!	!	!	!	!	!
=11	=11	=11	=11	=11	=11	=11	=11	=11	=11	=11	=11	=11	=11	=11	=11	=11	=11	=11	=11
2.F\ 2.B-	Sa-	.	.	2.f/ 2.dd	.	.	2.F\	Sa-	.	2.B-\	Sa-	.	2.f\	Sa-	.	.	2.dd\	Sa-	.
4En\ 4B-	-ba-	.	.	4g/ 4dd	.	.	4En\	-ba-	.	4B-\	-ba-	.	4g\	-ba-	.	.	4dd\	-ba-	.
=12	=12	=12	=12	=12	=12	=12	=12	=12	=12	=12	=12	=12	=12	=12	=12	=12	=12	=12	=12
1F 1A	-oth	.	.	1f;> 1cc	.	.	1F;>	-oth	.	1f;>	-oth	.	1f;>	-oth	.	.	1cc;>	-oth	.
!	!	!	!	!	!	!	!	!	!	!LO:LB:g=original	!	!	!	!	!	!	!LO:LB:g=original	!	!
=13||	=13||	=13||	=13||	=13||	=13||	=13||	=13||	=13||	=13||	=13||	=13||	=13||	=13||	=13||	=13||	=13||	=13||	=13||	=13||
*M3/4	*	*	*	*M3/4	*	*	*M3/4	*	*	*M3/4	*	*	*M3/4	*	*	*	*M3/4	*	*
!	!	!	!	!LO:TX:i:b:t=all[egr]o mod[era]to	!	!	!LO:TX:a:i:t=all[egr]o mod[era]to	!	!	!LO:TX:i:a:t=all[egr]o mod[era]to	!	!	!LO:TX:i:a:t=all[egr]o mod[era]to	!	!	!	!	!	!
2.BB-\ 2.F	Ple-	.	.	4f/ 4dd	.	.	2.BB-/	Ple-	.	2.F/	Ple-	.	4f\	Ple-	.	.	4dd\	Ple-	.
.	.	.	.	4f/ 4dd	.	.	.	.	.	.	.	.	4f\	-ni	.	.	4dd\	-ni	.
.	.	.	.	4f/ 4dd	.	.	.	.	.	.	.	.	4f\	sunt	.	.	4dd\	sunt	.
=14	=14	=14	=14	=14	=14	=14	=14	=14	=14	=14	=14	=14	=14	=14	=14	=14	=14	=14	=14
2BB-\ 2F	-ni	.	.	4g/ 4ee-	.	.	2BB-/	-ni	.	2F/	-ni	.	(>4g\	ce-	.	.	(>4ee-\	ce-	.
.	.	.	.	4f/ 4dd	.	.	.	.	.	.	.	.	4f\)	.	.	.	4dd\)	.	.
4BB-\ 4F	sunt	.	.	4e-/ 4cc	.	.	4BB-/	sunt	.	4F/	sunt	.	4e-\	-li	.	.	4cc\	-li	.
=15	=15	=15	=15	=15	=15	=15	=15	=15	=15	=15	=15	=15	=15	=15	=15	=15	=15	=15	=15
*^	*	*	*	*	*	*	*	*	*	*	*	*	*	*	*	*	*	*	*
4d\	2.FF\	ce-	.	.	4f/ 4b-	.	.	2.FF/	ce-	.	4d\	ce-	.	4f\	ce-	.	.	4b-\	ce-	.
!LO:N:vis=4:xstem	!	!	!	!	!	!	!	!	!	!	!	!	!	!	!	!	!	!	!	!
4c\	.	.	.	.	4f/ 4a	.	.	.	.	.	4c\	-li	.	4f\	li	.	.	4a\	-li	.
!LO:TX:t=P:problem:\right	!	!	!	!	!	!	!	!	!	!	!	!	!	!	!	!	!	!	!	!
4B-\	.	.	.	.	4f/ 4g	.	.	.	.	.	4B-\	et	.	4f\	et	.	.	4g\	et	.
=16	=16	=16	=16	=16	=16	=16	=16	=16	=16	=16	=16	=16	=16	=16	=16	=16	=16	=16	=16	=16
4A/	2.F\	-li	.	.	4c/ 4f	.	.	2.F\	-li	.	(>4A\	ter-	.	(>4c\	ter-	.	.	(<4f/	ter-	.
4B-\	.	.	.	.	4d/ 4g	.	.	.	.	.	4B-\)	.	.	4d\)	.	.	.	4g/)	.	.
!LO:N:vis=4:xstem	!	!	!	!	!	!	!	!	!	!	!	!	!	!	!	!	!	!	!	!
4c/	.	.	.	.	4e-/ 4a	.	.	.	.	.	4c\	-ra	.	4e-\	-ra	.	.	4a/	-ra	.
*v	*v	*	*	*	*	*	*	*	*	*	*	*	*	*	*	*	*	*	*	*
!	!	!	!	!	!	!	!	!	!	!	!	!	!LO:LB:g=original	!	!	!	!	!	!
=17	=17	=17	=17	=17	=17	=17	=17	=17	=17	=17	=17	=17	=17	=17	=17	=17	=17	=17	=17
2.BB-\ 2.F	ce-	.	.	4d/ 4b-	.	.	2.BB-/	ce-	.	2.F/	Ple-	.	4d\	Ple-	.	.	4b-\	Ple-	.
.	.	.	.	4f/ 4dd	.	.	.	.	.	.	.	.	4f\	-ni	.	.	4dd\	-ni	.
.	.	.	.	4f/ 4dd	.	.	.	.	.	.	.	.	4f\	sunt	.	.	4dd\	sunt	.
=18	=18	=18	=18	=18	=18	=18	=18	=18	=18	=18	=18	=18	=18	=18	=18	=18	=18	=18	=18
2BB-\ 2F	-li	.	.	4g/ 4ee-	.	.	2BB-/	-li	.	2F/	-ni	.	(>4g\	ce-	.	.	(>4ee-\	ce-	.
.	.	.	.	4f/ 4dd	.	.	.	.	.	.	.	.	4f\)	.	.	.	4dd\)	.	.
4BB-\ 4F	et	.	.	4e-/ 4cc	.	.	4BB-/	et	.	4F/	sunt	.	4e-\	-li	.	.	4cc\	-li	.
!	!	!	!	!	!	!	!LO:LB:g=original	!	!	!	!	!	!	!	!	!	!LO:LB:g=original	!	!
=19	=19	=19	=19	=19	=19	=19	=19	=19	=19	=19	=19	=19	=19	=19	=19	=19	=19	=19	=19
*^	*	*	*	*	*	*	*	*	*	*	*	*	*	*	*	*	*	*	*
4d/	2.F\	ter-	.	.	4f/ 4b-	.	.	2.FF/	ter-	.	4d\	ce-	.	4f\	ce-	.	.	4b-\	ce-	.
4c/	.	.	.	.	4f/ 4a	.	.	.	.	.	4c\	-li	.	4f\	-li	.	.	4a\	-li	.
4B-/	.	.	.	.	4f/ 4g	.	.	.	.	.	4B-\	et	.	4f\	et	.	.	4g\	et	.
!LO:LB:g=original	!LO:LB:g=original	!	!	!	!LO:LB:g=original	!	!	!	!	!	!LO:LB:g=original	!	!	!	!	!	!	!	!	!
=20	=20	=20	=20	=20	=20	=20	=20	=20	=20	=20	=20	=20	=20	=20	=20	=20	=20	=20	=20	=20
4A/	2.F\	-ra	.	.	4c/ 4f	.	.	2.F\	-ra	.	(>4A\	ter-	.	(>4c\	ter-	.	.	(>4f\	ter-	.
4B-/	.	.	.	.	4d/ 4g	.	.	.	.	.	4B-\)	.	.	4d\)	.	.	.	4g\)	.	.
4c/	.	.	.	.	4e-/ 4a	.	.	.	.	.	4c\	-ra	.	4e-\	-ra	.	.	4a\	-ra	.
!	!	!	!	!	!	!	!	!	!	!	!	!	!	!	!	!	!	!LO:TX:a:t=P:problem:znak "+" nad kreską taktową	!	!
=21	=21	=21	=21	=21	=21	=21	=21	=21	=21	=21	=21	=21	=21	=21	=21	=21	=21	=21	=21	=21
4F/	4BB-\	glo-	.	.	4d/ 4b-	.	.	4BB-/	glo-	.	4F/	glo-	.	4d\	glo-	.	.	4b-\	glo-	.
8B-/L	4BB-\	-ri-	.	.	4f/ 4dd	.	.	4BB-/	-ri-	.	(>8B-\L	-ri-	.	4f\	-ri-	.	.	4dd\	-ri-	.
8d/J	.	.	.	.	.	.	.	.	.	.	8d\J)	.	.	.	.	.	.	.	.	.
4f/	4BBn\	-a	.	.	4a-X/ 4dd	.	.	4BBn/	-a	.	4f\	-a	.	4a-X\	-a	.	.	4dd\	-a	.
=22	=22	=22	=22	=22	=22	=22	=22	=22	=22	=22	=22	=22	=22	=22	=22	=22	=22	=22	=22	=22
*	*	*	*	*	*^	*	*	*	*	*	*	*	*	*	*	*	*	*	*	*
2e-/	2C\	tu-	.	.	4ff/	2g\	.	.	2C/	tu-	.	2e-\	tu-	.	2g\	tu-	.	.	(>4ff\	tu-	.
.	.	.	.	.	4een/	.	.	.	.	.	.	.	.	.	.	.	.	.	4een\)	.	.
!	!	!	!	!	!	!LO:TX:b:t=P:problem:\right	!	!	!	!	!	!	!	!	!	!	!	!	!	!	!
4c/	4BB-X\	-a	.	.	4ee-X/	4g-X\	.	.	4BB-X/	-a	.	4c\	-a	.	4g-X\	-a	.	.	4ee-X\	-a	.
*v	*v	*	*	*	*	*	*	*	*	*	*	*	*	*	*	*	*	*	*	*	*
*	*	*	*	*v	*v	*	*	*	*	*	*	*	*	*	*	*	*	*	*	*
!	!	!	!	!	!	!	!	!	!	!	!	!	!LO:LB:g=original	!	!	!	!	!	!
=23	=23	=23	=23	=23	=23	=23	=23	=23	=23	=23	=23	=23	=23	=23	=23	=23	=23	=23	=23
!LO:TX:t=P:problem:\right:cały takt	!	!	!	!	!	!	!	!	!	!	!	!	!	!	!	!	!LO:TX:t=P:problem:dźwięki po korekcie głównego skryptora	!	!
4AA\ 4e-	glo-	.	.	4f/ 4cc	.	.	4AA/	glo-	.	4e-\	glo-	.	4f\	glo-	.	.	4cc\	glo-	.
4AA\ 4e-	-ri-	.	.	4f/ 4cc	.	.	4AA/	-ri-	.	4e-\	-ri-	.	4f\	-ri-	.	.	4cc\	-ri-	.
4AA\ 4e-	-a	.	.	4f/ 4cc	.	.	4AA/	-a	.	4e-\	-a	.	4f\	-a	.	.	4cc\	-a	.
=24	=24	=24	=24	=24	=24	=24	=24	=24	=24	=24	=24	=24	=24	=24	=24	=24	=24	=24	=24
*	*	*	*	*^	*	*	*	*	*	*	*	*	*	*	*	*	*	*	*
2AA\ 2c	tu-	.	.	2ee-/	2f\	.	.	2AA/	tu-	.	2c\	tu-	.	2f\	tu-	.	.	2ee-\	tu-	.
!	!	!	!	!	!LO:TX:b:t=P:problem:\right	!	!	!	!	!	!	!	!	!	!	!	!	!	!	!
4BB-\ 4B-	-a	.	.	4dd/	4f\	.	.	4BB-/	-a	.	4B-\	-a	.	4f\	-a	.	.	4dd\	-a	.
!	!	!	!	!	!	!	!	!	!	!	!	!	!	!	!	!	!	!LO:LB:g=original	!	!
=25	=25	=25	=25	=25	=25	=25	=25	=25	=25	=25	=25	=25	=25	=25	=25	=25	=25	=25	=25	=25
2.F\ 2.A	Ho-	.	.	2.cc/	2.e-X\	.	.	2.F\	Ho-	.	2.A\	Ho-	.	2.e-X\	Ho-	.	.	2.cc\	Ho-	.
!	!	!	!	!	!	!	!	!LO:LB:g=original	!	!	!	!	!	!	!	!	!	!	!	!
=26	=26	=26	=26	=26	=26	=26	=26	=26	=26	=26	=26	=26	=26	=26	=26	=26	=26	=26	=26	=26
*^	*	*	*	*	*	*	*	*	*	*	*	*	*	*	*	*	*	*	*	*
2B-/	4.F\	-san-	.	.	4.b-/	2d\	.	.	(>4.F\	-san-	.	2B-\	-san-	.	2d\	-san-	.	.	(>4.b-\	-san-	.
.	8D\	.	.	.	8dd/	.	.	.	8D\)	.	.	.	.	.	.	.	.	.	8dd\)	.	.
!	!	!	!	!	!	!LO:TX:b:t=P:problem:\right	!	!	!	!	!	!	!	!	!	!	!	!	!	!	!
4B-/	4BB-\	-na	.	.	4ff/	4d\	.	.	4BB-\	-na	.	4B-\	-na	.	4d\	-na	.	.	4ff\	-na	.
*v	*v	*	*	*	*	*	*	*	*	*	*	*	*	*	*	*	*	*	*	*	*
!	!	!	!	!	!	!	!	!	!	!	!LO:LB:g=original	!	!	!	!	!	!	!	!	!
=27	=27	=27	=27	=27	=27	=27	=27	=27	=27	=27	=27	=27	=27	=27	=27	=27	=27	=27	=27	=27
4r	.	.	.	4r	4ryy	.	.	4r	.	.	4r	.	.	4r	.	.	.	4r	.	.
4F\ 4A	in	.	.	4cc/	4e-\	.	.	4F\	in	.	4A\	in	.	4e-\	in	.	.	4cc\	in	.
4F\ 4A	ex-	.	.	4cc/	4e-\	.	.	4F\	ex-	.	4A\	ex-	.	4e-\	ex-	.	.	4cc\	ex-	.
=28	=28	=28	=28	=28	=28	=28	=28	=28	=28	=28	=28	=28	=28	=28	=28	=28	=28	=28	=28	=28
*^	*	*	*	*	*	*	*	*	*	*	*	*	*	*	*	*	*	*	*	*
2B-/	(>4.F\	-cel-	.	.	4.b-/	2d\	.	.	(>4.F\	-cel-	.	2B-\	-cel-	.	2d\	-cel-	.	.	(>4.b-\	-cel-	.
.	8D\)	.	.	.	8dd/	.	.	.	8D\)	.	.	.	.	.	.	.	.	.	8dd\)	.	.
!	!	!	!	!	!	!LO:TX:b:t=P:problem:\right	!	!	!	!	!	!	!	!	!	!	!	!	!	!	!
4B-/	4BB-\	-sis	.	.	4ff/	4d\	.	.	4BB-/	-sis	.	4B-\	-sis	.	4d\	-sis	.	.	4ff\	-sis	.
*v	*v	*	*	*	*	*	*	*	*	*	*	*	*	*	*	*	*	*	*	*	*
=29	=29	=29	=29	=29	=29	=29	=29	=29	=29	=29	=29	=29	=29	=29	=29	=29	=29	=29	=29	=29
2.D\ 2.B-	Ho-	.	.	2.ff/	4f\	.	.	2.D\	Ho-	.	2.B-\	Ho-	.	(>4f\	Ho-	.	.	2.ff\	Ho-	.
!	!	!	!	!	!	!	!	!	!	!	!	!	!	!LO:TX:t=P:problem:\left	!	!	!	!	!	!
.	.	.	.	.	4b-\	.	.	.	.	.	.	.	.	4b-\	.	.	.	.	.	.
.	.	.	.	.	4a\	.	.	.	.	.	.	.	.	4a\)	.	.	.	.	.	.
!	!	!	!	!	!	!	!	!	!	!	!	!	!	!LO:LB:g=original	!	!	!	!	!	!
=30	=30	=30	=30	=30	=30	=30	=30	=30	=30	=30	=30	=30	=30	=30	=30	=30	=30	=30	=30	=30
!	!	!	!	!	!	!	!	!	!	!	!	!	!	!LO:TX:t=P:problem:\left:cały takt	!	!	!	!	!	!
4D\ 4Bn	-san-	.	.	4ff/	4a-X\	.	.	4D\	-san-	.	4Bn\	-san-	.	4a-X\	-san-	.	.	4ff\	-san-	.
4E-\ 4c	-na	.	.	4ee-/	4g\	.	.	4E-\	-na	.	4c\	-na	.	4g\	-na	.	.	4ee-\	-na	.
8E-\L 8c	in	.	.	8cc/L	8g\L	.	.	8E-\	in	.	8c\	in	.	8g\	in	.	.	8cc\	in	.
8E-\J 8c	ex-	.	.	8cc/J	8g\J	.	.	8E-\	ex-	.	8c\	ex-	.	8g\	ex-	.	.	8cc\	ex-	.
!LO:LB:g=original	!	!	!	!LO:LB:g=original	!LO:LB:g=original	!	!	!	!	!	!	!	!	!	!	!	!	!LO:LB:g=original	!	!
=31	=31	=31	=31	=31	=31	=31	=31	=31	=31	=31	=31	=31	=31	=31	=31	=31	=31	=31	=31	=31
*^	*	*	*	*	*	*	*	*	*	*	*	*	*	*	*	*	*	*	*	*
2d\	2.F\	-[[na]]-	cel	.	2b-/	2.f\	.	.	2.F\	-cel-	.	(>2d\	-cel-	.	2.f\	-cel-	.	.	(>2b-\	-cel-	.
4e-/	.	.	.	.	4a/	.	.	.	.	.	.	4e-\)	.	.	.	.	.	.	4a\)	.	.
!	!	!	!	!	!	!	!	!	!LO:LB:g=original	!	!	!	!	!	!	!	!	!	!	!	!
=32	=32	=32	=32	=32	=32	=32	=32	=32	=32	=32	=32	=32	=32	=32	=32	=32	=32	=32	=32	=32	=32
!	!LO:TX:a:t=P:problem:P:problem:fragment tekstu: "lsis" znajduje się przed kreską taktową	!	!	!	!	!	!	!	!	!	!	!	!	!	!	!	!	!	!	!	!
4d\	4BB-\	-lsis	[[glo-	.	4b-/	4f\	.	.	4BB-/	-sis	.	4d\	-sis	.	4f\	-sis	.	.	4b-\	-sis	.
*	*	*above	*	*	*	*	*	*	*	*	*	*	*	*	*	*	*	*	*	*	*
!	!LO:TX:a:t=P:problem:P:problem:fragment tekstu: "in ex" znajduje się pomiędzy pięcioliniami	!	!	!	!	!	!	!	!	!	!	!	!	!	!	!	!	!	!	!	!
4F/	4BB-\	in	-ri-	.	4dd/	4f\	.	.	4BB-/	in	.	4F/	in	.	4f\	in	.	.	4dd\	in	.
!LO:TX:t=P:problem:\right	!	!	!	!	!	!	!	!	!	!	!	!	!	!	!	!	!	!	!	!	!
4B-\	4BB-\	ex	-a]]	.	4b-/	4d\	.	.	4BB-/	ex-	.	4B-\	ex-	.	4d\	ex-	.	.	4b-\	ex-	.
*	*	*below	*	*	*	*	*	*	*	*	*	*	*	*	*	*	*	*	*	*	*
*v	*v	*	*	*	*	*	*	*	*	*	*	*	*	*	*	*	*	*	*	*	*
=33	=33	=33	=33	=33	=33	=33	=33	=33	=33	=33	=33	=33	=33	=33	=33	=33	=33	=33	=33	=33
2.F\ 2.A	cel-	.	.	2.ff/	2.e-\	.	.	2.F\	-cel-	.	2.A\	-cel-	.	2.e-\	-cel-	.	.	2.ff\	-cel-	.
!	!	!	!	!	!	!	!	!	!	!	!LO:LB:g=original	!	!	!	!	!	!	!	!	!
=34	=34	=34	=34	=34	=34	=34	=34	=34	=34	=34	=34	=34	=34	=34	=34	=34	=34	=34	=34	=34
4BB-\ 4B-	-sis	.	.	4dd/	4d/	.	.	4BB-/	-sis	.	4B-\	-sis	.	4d\	-sis	.	.	4dd\	-sis	.
!	!	!	!	!	!LO:TX:b:t=P:problem:\right	!	!	!	!	!	!	!	!	!	!	!	!	!	!	!
4BB-\ 4F	in	.	.	4dd/	4f\	.	.	4BB-/	in	.	4F/	in	.	4f\	in	.	.	4dd\	in	.
!	!	!	!	!	!LO:TX:b:t=P:problem:\right	!	!	!	!	!	!	!	!	!	!	!	!	!	!	!
4BB-\ 4B-	ex-	.	.	4b-/	4d\	.	.	4BB-/	ex-	.	4B-\	ex-	.	4d\	ex-	.	.	4b-\	ex-	.
=35	=35	=35	=35	=35	=35	=35	=35	=35	=35	=35	=35	=35	=35	=35	=35	=35	=35	=35	=35	=35
*^	*	*	*	*	*	*	*	*	*	*	*	*	*	*	*	*	*	*	*	*
!LO:TX:a:t=P:problem:P:problem:sylaba: "-cel-" znajduje się bezpośrednio nad 2.FF	!	!	!	!	!	!	!	!	!	!	!	!	!	!	!	!	!	!	!	!	!
2.c\	2.FF\	-cel-	.	.	2.a/	2.e-\	.	.	2.FF/	-cel-	.	2.c\	-cel-	.	2.e-\	-cel-	.	.	2.a\	-cel-	.
*v	*v	*	*	*	*	*	*	*	*	*	*	*	*	*	*	*	*	*	*	*	*
=36	=36	=36	=36	=36	=36	=36	=36	=36	=36	=36	=36	=36	=36	=36	=36	=36	=36	=36	=36	=36
4BB-\ 4B-	-sis	.	.	4b-/	4d\	.	.	4BB-/	-sis	.	4B-\	-sis	.	4d\	-sis	.	.	4b-\	-sis	.
4r	.	.	.	4r	4ryy	.	.	4r	.	.	4r	.	.	4r	.	.	.	4r	.	.
4r	.	.	.	4r	4ryy	.	.	4r	.	.	4r	.	.	4r	.	.	.	4r	.	.
*	*	*	*	*v	*v	*	*	*	*	*	*	*	*	*	*	*	*	*	*	*
==	==	==	==	==	==	==	==	==	==	==	==	==	==	==	==	==	==	==	==
*-	*-	*-	*-	*-	*-	*-	*-	*-	*-	*-	*-	*-	*-	*-	*-	*-	*-	*-	*-
!!!system-decoration: [g1][s5,s6]
!!!RDF**kern: > = above
!!!RDF**kern: < = below
!!!EED: Mateusz Mrugas
!!!EST: 2021-01-18
!!!ENC: Krzysztof Stępień
!!!END: 2021-01-11
